svg/business/currency_lira_2_line.svg

<?xml version="1.0" encoding="UTF-8"?>
<svg width="24px" height="24px" viewBox="0 0 24 24" version="1.1" xmlns="http://www.w3.org/2000/svg" xmlns:xlink="http://www.w3.org/1999/xlink">
    <title>currency_lira_2_line</title>
    <g id="页面-1" stroke="none" stroke-width="1" fill="none" fill-rule="evenodd">
        <g id="Business" transform="translate(-192.000000, -288.000000)" fill-rule="nonzero">
            <g id="currency_lira_2_line" transform="translate(192.000000, 288.000000)">
                <path d="M24,0 L24,24 L0,24 L0,0 L24,0 Z M12.5934901,23.257841 L12.5819402,23.2595131 L12.5108777,23.2950439 L12.4918791,23.2987469 L12.4918791,23.2987469 L12.4767152,23.2950439 L12.4056548,23.2595131 C12.3958229,23.2563662 12.3870493,23.2590235 12.3821421,23.2649074 L12.3780323,23.275831 L12.360941,23.7031097 L12.3658947,23.7234994 L12.3769048,23.7357139 L12.4804777,23.8096931 L12.4953491,23.8136134 L12.4953491,23.8136134 L12.5071152,23.8096931 L12.6106902,23.7357139 L12.6232938,23.7196733 L12.6232938,23.7196733 L12.6266527,23.7031097 L12.609561,23.275831 C12.6075724,23.2657013 12.6010112,23.2592993 12.5934901,23.257841 L12.5934901,23.257841 Z M12.8583906,23.1452862 L12.8445485,23.1473072 L12.6598443,23.2396597 L12.6498822,23.2499052 L12.6498822,23.2499052 L12.6471943,23.2611114 L12.6650943,23.6906389 L12.6699349,23.7034178 L12.6699349,23.7034178 L12.678386,23.7104931 L12.8793402,23.8032389 C12.8914285,23.8068999 12.9022333,23.8029875 12.9078286,23.7952264 L12.9118235,23.7811639 L12.8776777,23.1665331 C12.8752882,23.1545897 12.8674102,23.1470016 12.8583906,23.1452862 L12.8583906,23.1452862 Z M12.1430473,23.1473072 C12.1332178,23.1423925 12.1221763,23.1452606 12.1156365,23.1525954 L12.1099173,23.1665331 L12.0757714,23.7811639 C12.0751323,23.7926639 12.0828099,23.8018602 12.0926481,23.8045676 L12.108256,23.8032389 L12.3092106,23.7104931 L12.3186497,23.7024347 L12.3186497,23.7024347 L12.3225043,23.6906389 L12.340401,23.2611114 L12.337245,23.2485176 L12.337245,23.2485176 L12.3277531,23.2396597 L12.1430473,23.1473072 Z" id="MingCute" fill-rule="nonzero"></path>
                <path d="M11,3 C11.5523,3 12,3.44772 12,4 L12,7.38197 L14.5528,6.10557 C15.0467,5.85858 15.6474,6.05881 15.8944,6.55279 C16.1414,7.04676 15.9412,7.64744 15.4472,7.89443 L12,9.61803 L12,11.382 L14.5528,10.1056 C15.0467,9.85858 15.6474,10.0588 15.8944,10.5528 C16.1414,11.0468 15.9412,11.6474 15.4472,11.8944 L12,13.618 L12,18.8357 C12.6761,18.6418 13.4903,18.2705 14.2868,17.6913 C15.516,16.7973 16.5987,15.482 17.0298,13.7575 C17.1638,13.2217 17.7067,12.8959 18.2425,13.0299 C18.7783,13.1638 19.1041,13.7067 18.9701,14.2425 C18.4013,16.518 16.9839,18.2027 15.4631,19.3087 C13.9677,20.3963 12.2662,21 11,21 C10.4477,21 9.99998,20.5523 9.99998,20 L9.99998,14.618 L7.44719,15.8944 C6.95321,16.1414 6.35254,15.9412 6.10555,15.4472 C5.85856,14.9532 6.05878,14.3526 6.55276,14.1056 L9.99998,12.382 L9.99998,10.618 L7.44719,11.8944 C6.95321,12.1414 6.35254,11.9412 6.10555,11.4472 C5.85856,10.9532 6.05878,10.3526 6.55276,10.1056 L9.99998,8.38197 L9.99998,4 C9.99998,3.44772 10.4477,3 11,3 Z" id="路径" fill="#09244B"></path>
            </g>
        </g>
    </g>
</svg>

<svg xmlns="http://www.w3.org/2000/svg" width="24" height="24"><g fill="none" fill-rule="nonzero"><path d="M24 0v24H0V0zM12.593 23.258l-.011.002-.071.035-.02.004-.014-.004-.071-.035c-.01-.004-.019-.001-.024.005l-.004.01-.017.428.005.02.01.013.104.074.015.004.012-.004.104-.074.012-.016.004-.017-.017-.427c-.002-.01-.009-.017-.017-.018m.265-.113-.013.002-.185.093-.01.01-.003.011.018.43.005.012.008.007.201.093c.012.004.023 0 .029-.008l.004-.014-.034-.614c-.003-.012-.01-.02-.02-.022m-.715.002a.023.023 0 0 0-.027.006l-.006.014-.034.614c0 .012.007.02.017.024l.015-.002.201-.093.01-.008.004-.011.017-.43-.003-.012-.01-.01z"/><path fill="#09244B" d="M11 3a1 1 0 0 1 1 1v3.382l2.553-1.276a1 1 0 0 1 .894 1.788L12 9.618v1.764l2.553-1.276a1 1 0 1 1 .894 1.788L12 13.618v5.218a7.503 7.503 0 0 0 2.287-1.145c1.229-.894 2.312-2.209 2.743-3.933a1 1 0 0 1 1.94.485c-.569 2.275-1.986 3.96-3.507 5.066C13.968 20.396 12.266 21 11 21a1 1 0 0 1-1-1v-5.382l-2.553 1.276a1 1 0 1 1-.894-1.788L10 12.382v-1.764l-2.553 1.276a1 1 0 1 1-.894-1.788L10 8.382V4a1 1 0 0 1 1-1"/></g></svg>
